X: 1
T: The Turnpike
R: reel
M: 4/4
L: 1/8
K: Amaj
A2cA B2AF|E3F ABce|a2ge faec|cBBA B2cB|
A2cA B2AF|E3F ABce|a2ge faec|BABc A4:|
E2GE BEGE|A2cA eAcA|B2^dB fBdB|e2ge bege|
agae faec|defg a2fg|a2ge faec|BABc A4:|


Tune 917	Setting 14105

